upholstery/frontseat_back.blend_page10.svg

<?xml version="1.0" encoding="UTF-8" standalone="no"?>
<svg
   version="1.1"
   width="300.00mm"
   height="600.00mm"
   viewBox="0 0 300.00 600.00"
   id="svg900"
   sodipodi:docname="frontseat_back.blend_page10.svg"
   inkscape:version="1.1.1 (c3084ef, 2021-09-22)"
   xmlns:inkscape="http://www.inkscape.org/namespaces/inkscape"
   xmlns:sodipodi="http://sodipodi.sourceforge.net/DTD/sodipodi-0.dtd"
   xmlns="http://www.w3.org/2000/svg"
   xmlns:svg="http://www.w3.org/2000/svg">
  <defs
     id="defs904" />
  <sodipodi:namedview
     id="namedview902"
     pagecolor="#ffffff"
     bordercolor="#666666"
     borderopacity="1.0"
     inkscape:pageshadow="2"
     inkscape:pageopacity="0.0"
     inkscape:pagecheckerboard="0"
     inkscape:document-units="mm"
     showgrid="false"
     inkscape:zoom="0.35057292"
     inkscape:cx="566.21602"
     inkscape:cy="1133.8583"
     inkscape:window-width="1792"
     inkscape:window-height="975"
     inkscape:window-x="0"
     inkscape:window-y="25"
     inkscape:window-maximized="1"
     inkscape:current-layer="svg900" />
  <style
     type="text/css"
     id="style824">
    path {
        fill: none;
        stroke-linecap: butt;
        stroke-linejoin: bevel;
        stroke-dasharray: none;
    }
    path.outer {
        stroke: #000000;
        stroke-dasharray: none;
        stroke-dashoffset: 0;
        stroke-width: 0.3;
        stroke-opacity: 1.0;
    }
    path.convex {
        stroke: #000000;
        stroke-dasharray: 0.50,1.00;
        stroke-dashoffset:0;
        stroke-width:0.2;
        stroke-opacity: 1.0
    }
    path.concave {
        stroke: #000000;
        stroke-dasharray: 1.00,0.50,0.20,0.50;
        stroke-dashoffset: 0;
        stroke-width: 0.2;
        stroke-opacity: 1.0
    }
    path.freestyle {
        stroke: #000000;
        stroke-dasharray: none;
        stroke-dashoffset: 0;
        stroke-width: 0.2;
        stroke-opacity: 1.0
    }
    path.outer_background {
        stroke: #ffffff;
        stroke-opacity: 1.0;
        stroke-width: 0.5
    }
    path.inner_background {
        stroke: #ffffff;
        stroke-opacity: 1.0;
        stroke-width: 0.2
    }
    path.sticker {
        fill: #e5e5e5;
        stroke: none;
        fill-opacity: 1.0;
    }
    path.arrow {
        fill: #000000;
    }
    text {
        font-style: normal;
        fill: #000000;
        fill-opacity: 1.0;
        stroke: none;
    }
    text, tspan {
        text-anchor:middle;
    }
    </style>
  <text
     style="font-size:10px"
     id="text828"
     x="132.39182"
     y="362.36765"><tspan
       id="tspan826">[12] I 12</tspan></text>
  <path
     class="sticker"
     d="M 32.232505,360.06441 22.324889,361.4296 5.000032,248.81023 14.859879,247.1345 Z m 2.9548,105.34339 -10.000473,0.12335 -2.945989,-105.02933 9.991662,-0.43741 z M 14.790159,571.40619 5,569.3623 25.337779,463.67244 l 9.849526,1.73536 z m 39.528602,-325.37849 -0.123352,-10.00046 75.528041,-2.1185 0.43741,9.99164 z m 84.930489,321.88751 0.12336,10.00047 -75.528051,2.11853 -0.43742,-9.99167 z M 14.859879,247.1345 l -0.123354,-10.00047 39.144819,-1.09797 0.437417,9.99164 z m 48.54726,322.90804 0.123348,10.00047 -48.30292,1.35484 -0.437408,-9.99166 z m 182.054691,-329.37627 9.9383,1.12041 -10.98481,113.41346 -9.96857,-0.80768 z m -11.01508,113.72619 10.00047,-0.12335 2.946,105.02932 -9.99167,0.43741 z m 2.9548,105.34338 9.73676,-2.28474 26.2302,104.38363 -9.66018,2.58946 z m -107.24069,-215.83546 -0.12335,-10.00046 75.52802,-2.1185 0.43741,9.99164 z m 84.93048,321.88751 0.12333,10.00047 -75.52801,2.11851 -0.43741,-9.99166 z m -9.0884,-324.01483 -0.12337,-10.00046 39.14483,-1.09798 0.43743,9.99165 z m 57.70539,322.65113 0.12335,10.00047 -48.30292,1.35489 -0.43742,-9.99166 z"
     id="path830" />
  <path
     class="outer"
     d="m 130.03751,233.89992 75.52802,-2.1185 0.43741,9.99164 -0.12337,-10.00046 39.14483,-1.09798 0.43743,9.99165 9.9383,1.12041 -10.98481,113.41346 -9.96857,-0.80768 10.00047,-0.12335 2.946,105.02932 -9.99167,0.43741 9.73676,-2.28474 26.2302,104.38363 -9.66018,2.58946 0.12335,10.00047 -48.30292,1.35489 -0.43742,-9.99166 0.12333,10.00047 -75.52801,2.11851 -0.43741,-9.99166 0.12336,10.00047 -75.528051,2.11853 -0.43742,-9.99167 0.123348,10.00047 -48.30292,1.35484 -0.437408,-9.99166 L 5,569.3623 25.337779,463.67244 l 9.849526,1.73536 -10.000473,0.12335 -2.945989,-105.02933 9.991662,-0.43741 -9.907616,1.36519 -17.324857,-112.61937 9.859847,-1.67573 -0.123354,-10.00047 39.144819,-1.09797 0.437417,9.99164 -0.123352,-10.00046 75.528041,-2.1185 0.43741,9.99164 z"
     id="path832" />
  <text
     transform="rotate(-98.745574)"
     style="font-size:9px"
     id="text836"
     x="-303.64972"
     y="-24.689001"><tspan
       id="tspan834">14:1</tspan></text>
  <text
     transform="rotate(-79.107782)"
     style="font-size:9px"
     id="text840"
     x="-504.34579"
     y="120.69771"><tspan
       id="tspan838">14:2</tspan></text>
  <g
     id="g848">
    <path
       transform="matrix(9.996069,-0.280386,0.280386,9.996069,34.589318,246.58107)"
       class="arrow"
       d="M 0,0 1,1 0,0.25 -1,1 Z"
       id="path842" />
    <text
       transform="translate(34.841665,259.57754)"
       style="font-size:10px"
       id="text846"><tspan
         id="tspan844">1</tspan></text>
  </g>
  <text
     transform="rotate(-1.6067267)"
     style="font-size:9px"
     id="text852"
     x="27.663322"
     y="245.65379"><tspan
       id="tspan850">8:1</tspan></text>
  <g
     id="g860">
    <path
       transform="matrix(-9.996069,0.280378,-0.280378,-9.996069,39.098647,570.72437)"
       class="arrow"
       d="M 0,0 1,1 0,0.25 -1,1 Z"
       id="path854" />
    <text
       transform="translate(38.846307,565.7279)"
       style="font-size:10px"
       id="text858"><tspan
         id="tspan856">2</tspan></text>
  </g>
  <text
     transform="rotate(178.39333)"
     style="font-size:9px"
     id="text864"
     x="-23.081306"
     y="-573.39618"><tspan
       id="tspan862">16:2</tspan></text>
  <text
     transform="rotate(95.532193)"
     style="font-size:9px"
     id="text868"
     x="273.01071"
     y="-269.32001"><tspan
       id="tspan866">15:1</tspan></text>
  <text
     transform="rotate(75.894386)"
     style="font-size:9px"
     id="text872"
     x="557.70264"
     y="-120.00124"><tspan
       id="tspan870">15:2</tspan></text>
  <g
     id="g880">
    <path
       transform="matrix(9.996069,-0.280386,0.280386,9.996069,225.73238,241.21969)"
       class="arrow"
       d="M 0,0 1,1 0,0.25 -1,1 Z"
       id="path874" />
    <text
       transform="translate(225.98473,254.21616)"
       style="font-size:10px"
       id="text878"><tspan
         id="tspan876">3</tspan></text>
  </g>
  <text
     transform="rotate(-1.6067267)"
     style="font-size:9px"
     id="text884"
     x="218.88155"
     y="245.6528"><tspan
       id="tspan882">8:3</tspan></text>
  <g
     id="g892">
    <path
       transform="matrix(-9.996069,0.280388,-0.280388,-9.996069,239.39982,565.10604)"
       class="arrow"
       d="M 0,0 1,1 0,0.25 -1,1 Z"
       id="path886" />
    <text
       transform="translate(239.14747,560.10958)"
       style="font-size:10px"
       id="text890"><tspan
         id="tspan888">4</tspan></text>
  </g>
  <text
     transform="rotate(178.39327)"
     style="font-size:9px"
     id="text896"
     x="-223.46065"
     y="-573.39636"><tspan
       id="tspan894">16:4</tspan></text>
</svg>

<?xml version='1.0' encoding='UTF-8' standalone='no'?>
    <svg xmlns='http://www.w3.org/2000/svg' xmlns:xlink='http://www.w3.org/1999/xlink' version='1.1'
    width='300.00mm' height='600.00mm' viewBox='0 0 300.00 600.00'>
<style type="text/css">
    path {
        fill: none;
        stroke-linecap: butt;
        stroke-linejoin: bevel;
        stroke-dasharray: none;
    }
    path.outer {
        stroke: #000000;
        stroke-dasharray: none;
        stroke-dashoffset: 0;
        stroke-width: 0.3;
        stroke-opacity: 1.0;
    }
    path.convex {
        stroke: #000000;
        stroke-dasharray: 0.50,1.00;
        stroke-dashoffset:0;
        stroke-width:0.2;
        stroke-opacity: 1.0
    }
    path.concave {
        stroke: #000000;
        stroke-dasharray: 1.00,0.50,0.20,0.50;
        stroke-dashoffset: 0;
        stroke-width: 0.2;
        stroke-opacity: 1.0
    }
    path.freestyle {
        stroke: #000000;
        stroke-dasharray: none;
        stroke-dashoffset: 0;
        stroke-width: 0.2;
        stroke-opacity: 1.0
    }
    path.outer_background {
        stroke: #ffffff;
        stroke-opacity: 1.0;
        stroke-width: 0.5
    }
    path.inner_background {
        stroke: #ffffff;
        stroke-opacity: 1.0;
        stroke-width: 0.2
    }
    path.sticker {
        fill: #e5e5e5;
        stroke: none;
        fill-opacity: 1.0;
    }
    path.arrow {
        fill: #000000;
    }
    text {
        font-style: normal;
        fill: #000000;
        fill-opacity: 1.0;
        stroke: none;
    }
    text, tspan {
        text-anchor:middle;
    }
    </style>
<g>
<text transform='translate(139.18425608426332 188.02801240235567)' style='font-size:10.00'><tspan>[12] I 12</tspan></text>
<path class='sticker' d=' M 32.232505 360.064412 L 22.324889 361.429597 L 5.000032 248.810227 L 14.859879 247.134502 Z
M 35.187305 465.407799 L 25.186832 465.531151 L 22.240843 360.501821 L 32.232505 360.064412 Z
M 14.790159 571.406188 L 5.000000 569.362304 L 25.337779 463.672440 L 35.187305 465.407799 Z
M 54.318761 246.027703 L 54.195409 236.027236 L 129.723449 233.908738 L 130.160858 243.900384 Z
M 139.249255 567.915208 L 139.372607 577.915679 L 63.844559 580.034205 L 63.407139 570.042540 Z
M 14.859879 247.134502 L 14.736525 237.134035 L 53.881344 236.036058 L 54.318761 246.027703 Z
M 63.407139 570.042540 L 63.530487 580.043013 L 15.227567 581.397852 L 14.790159 571.406188 Z
M 245.461826 240.666266 L 255.400126 241.786684 L 244.415318 355.200137 L 234.446754 354.392464 Z
M 234.446754 354.392464 L 244.447221 354.269112 L 247.393225 459.298427 L 237.401550 459.735836 Z
M 237.401550 459.735836 L 247.138311 457.451100 L 273.368512 561.834733 L 263.708328 564.424188 Z
M 130.160858 243.900384 L 130.037506 233.899917 L 205.565532 231.781418 L 206.002940 241.773064 Z
M 215.091337 565.787888 L 215.214674 575.788361 L 139.686664 577.906872 L 139.249255 567.915208 Z
M 206.002940 241.773064 L 205.879574 231.772597 L 245.024403 230.674620 L 245.461826 240.666266 Z
M 263.708328 564.424188 L 263.831680 574.424661 L 215.528761 575.779553 L 215.091337 565.787888 Z '/>
<path class='outer' d=' M 130.037506 233.899917 L 205.565532 231.781418 L 206.002940 241.773064 L 205.879574 231.772597 L 245.024403 230.674620 L 245.461826 240.666266 L 255.400126 241.786684 L 244.415318 355.200137 L 234.446754 354.392464 L 244.447221 354.269112 L 247.393225 459.298427 L 237.401550 459.735836 L 247.138311 457.451100 L 273.368512 561.834733 L 263.708328 564.424188 L 263.831680 574.424661 L 215.528761 575.779553 L 215.091337 565.787888 L 215.214674 575.788361 L 139.686664 577.906872 L 139.249255 567.915208 L 139.372607 577.915679 L 63.844559 580.034205 L 63.407139 570.042540 L 63.530487 580.043013 L 15.227567 581.397852 L 14.790159 571.406188 L 5.000000 569.362304 L 25.337779 463.672440 L 35.187305 465.407799 L 25.186832 465.531151 L 22.240843 360.501821 L 32.232505 360.064412 L 22.324889 361.429597 L 5.000032 248.810227 L 14.859879 247.134502 L 14.736525 237.134035 L 53.881344 236.036058 L 54.318761 246.027703 L 54.195409 236.027236 L 129.723449 233.908738 L 130.160858 243.900384 Z '/>
<text transform='matrix(-0.152047 -0.988373 0.988373 -0.152047 21.767122 303.873117)' style='font-size:9.00'><tspan>14:1</tspan></text>
<text transform='matrix(0.188962 -0.981984 0.981984 0.188962 23.221160 518.066864)' style='font-size:9.00'><tspan>14:2</tspan></text>
<g><path transform='matrix(9.996069 -0.280386 0.280386 9.996069 34.589318 246.581073)' class='arrow' d='M 0 0 L 1 1 L 0 0.25 L -1 1 Z'/><text transform='translate(34.841665 259.577538)' style='font-size:10.00'><tspan>1</tspan></text></g>
<text transform='matrix(0.999607 -0.028039 0.028039 0.999607 34.538851 244.781788)' style='font-size:9.00'><tspan>8:1</tspan></text>
<g><path transform='matrix(-9.996069 0.280378 -0.280378 -9.996069 39.098647 570.724365)' class='arrow' d='M 0 0 L 1 1 L 0 0.25 L -1 1 Z'/><text transform='translate(38.846307 565.727904)' style='font-size:10.00'><tspan>2</tspan></text></g>
<text transform='matrix(-0.999607 0.028038 -0.028038 -0.999607 39.149118 572.523656)' style='font-size:9.00'><tspan>16:2</tspan></text>
<text transform='matrix(-0.096405 0.995342 -0.995342 -0.096405 241.745909 297.702874)' style='font-size:9.00'><tspan>15:1</tspan></text>
<text transform='matrix(0.243710 0.969848 -0.969848 0.243710 252.300640 511.641334)' style='font-size:9.00'><tspan>15:2</tspan></text>
<g><path transform='matrix(9.996069 -0.280386 0.280386 9.996069 225.732376 241.219695)' class='arrow' d='M 0 0 L 1 1 L 0 0.25 L -1 1 Z'/><text transform='translate(225.984727 254.216160)' style='font-size:10.00'><tspan>3</tspan></text></g>
<text transform='matrix(0.999607 -0.028039 0.028039 0.999607 225.681906 239.420380)' style='font-size:9.00'><tspan>8:3</tspan></text>
<g><path transform='matrix(-9.996069 0.280388 -0.280388 -9.996069 239.399825 565.106037)' class='arrow' d='M 0 0 L 1 1 L 0 0.25 L -1 1 Z'/><text transform='translate(239.147474 560.109577)' style='font-size:10.00'><tspan>4</tspan></text></g>
<text transform='matrix(-0.999607 0.028039 -0.028039 -0.999607 239.450295 566.905330)' style='font-size:9.00'><tspan>16:4</tspan></text>
</g>
</svg>
